X:927
T:Reel 927
M:4/4
K:Dmaj
L:1/8
AG|FEFG AFDc|BAGB AGFD|FEFG A2de|fgec dcAG|FEFG AFDc|BAGB AGFD|FEFG A2ga|fgec d2|de|fedf edce|dcAB cAGg|fdde fdad|fage a2ag|fedf edce|dcAB cAFG|FEFG A3g|fdec d2|
